!!!COM: Bach, Johann Sebastian
!!!CDT: 1685/3//-1750/7/28/
!!!OTL@@DE: Christ, der du bist der helle Tag
!!!AGN: 4-Part Chorale
!!!SCT: BH 230
!!!SCT: BWV 273
**harm	**root	**kern	**kern	**kern	**kern
!	!	!bass	!tenor	!alto	!soprno
*	*Iorgan	*Iorgan	*Iorgan	*Iorgan	*Iorgan
*	*	*clefF4	*clefF4	*clefG2	*clefG2
*M4/4	*M4/4	*M4/4	*M4/4	*M4/4	*M4/4
*met(c)	*met(c)	*met(c)	*met(c)	*met(c)	*met(c)
*MM60	*MM60	*MM60	*MM60	*MM60	*MM60
*k[b-e-a-d-g-c-]	*k[b-e-a-d-g-c-]	*k[b-e-a-d-g-c-]	*k[b-e-a-d-g-c-]	*k[b-e-a-d-g-c-]	*k[b-e-a-d-g-c-]
*e-:	*e-:	*e-:	*e-:	*e-:	*e-:
i	4GG	4EE-	4G-	4B-	4e-
=1	=1	=1	=1	=1	=1
i	4GG	4E-	4G-	8B-	4e-
.	.	.	.	8c	.
IIIb	8BB-	8BB-	8B-	8d-	4g-
V7b/-VII	8CC	8C	8A-	8e-	.
-VII	8FF	8D-	4A-	8d-	4f
viio7	8FF#	8D	.	8c-	.
i	4GG	8E-	8G-	4B-	4e-
.	.	8D-	8F	.	.
=2	=2	=2	=2	=2	=2
VI	8EE-	8C-y	16E-	8e-	4g-
.	.	.	16F	.	.
III	8BB-	8BB-	4G-	8d-	.
iv7	8CC	8AA-	.	8c-	4a-
-VII	8FF	8D-	8F	8d-	.
III;	4BB-;	4GG-;	4G-;	4d-;	4b-;
III	4BB-	4GG-	8G-	4d-	4b-
.	.	.	8A-	.	.
=3	=3	=3	=3	=3	=3
IIIb	4BB-	8G-	8B-	4d-	4b-
.	.	8F	8A-	.	.
i	4GG	4E-	4G-	4e-	8b-
.	.	.	.	.	8cc-
-VII	4FF	4D-	4A-	4f	8dd-
.	.	.	.	.	8cc-
i	4GG	8E-	8G-	[4g-	4b-
.	.	8D-	8B-	.	.
=4	=4	=4	=4	=4	=4
ivb	4CC	4C-	4e-	8g-]	4a-
.	.	.	.	16f	.
.	.	.	.	16e-	.
V7/III	4FF	4D-	8d-	4f	4a-
.	.	.	8c-	.	.
III;	4BB-;	4GG-;	4B-;	4d-;	4g-;
i	4GG	8E-	4B-	4e-	4g-
.	.	8D-	.	.	.
=5	=5	=5	=5	=5	=5
VI	4EE-	8C-	4c-	8e-	4g-
.	.	8BB-	.	8f	.
III	4BB-	8AA-	4d-	4g-	4b-
.	.	8GG-	.	.	.
-VII	2FF	4.D-	4d-	8g-	4a-
.	.	.	.	16f	.
.	.	.	.	16e-	.
.	.	.	4A-	4d-	4f
.	.	8C-	.	.	.
=6	=6	=6	=6	=6	=6
III	4BB-	8BB-	4.G-	4d-	4g-
.	.	8GG-	.	.	.
-VII	4FF	4D-	.	4d-	4a-
.	.	.	8F	.	.
III;	4BB-;	4GG-;	4G-;	4d-;	4b-;
III	4BB-	4GG-	4G-	4d-	4b-
=7	=7	=7	=7	=7	=7
III	4BB-	8GG-	4G-	4d-	4b-
.	.	8AA-	.	.	.
III	4BB-	8BB-	[4G-	4d-	4b-
.	.	8C-	.	.	.
-VII	4FF	4D-	8G-]	8.d-	4a-
.	.	.	8F	.	.
.	.	.	.	16c-	.
V7	4DD	8D	[4F	[4B-	4a-
.	.	8BB-	.	.	.
=8	=8	=8	=8	=8	=8
i	4GG	4E-	8F]	4B-]	4.g-
.	.	.	8E-	.	.
vii7o/V	4CC#	4AA	8E-	4c	.
.	.	.	16F	.	16f
.	.	.	16G-	.	16e-
v;	4DD;	4BB-;	4F;	4B-;	4d-;
III	4BB-	8GG-	8G-	4B-	4d-
.	.	8FF	8A-	.	.
=9	=9	=9	=9	=9	=9
i	4GG	4EE-	8B-	8e-	8g-
.	.	.	8A-	8f	8a-
i	4GG	8E-	8G-	4g-	4b-
.	.	8D-	8F	.	.
V7b/-VII	4CC	4C	4E-	4g-	4a-
V	4DD	4D	4B-	4f	4b-
=10	=10	=10	=10	=10	=10
i	8GG	8E-	8B-	8f	4g-
V7/-VII	8CC	8AA-	8c-	4e-	.
V	4DD	4BB-	8F	.	4f
.	.	.	8B-	8d	.
i;	4GG;	4EE-;	4G-;	4B-;	4e-;
==	==	==	==	==	==
*-	*-	*-	*-	*-	*-
!!chor2scor: -l 2 -s 0.6 -o %b.pmx
!!!YEC: Copyright 2003 by Craig Stuart Sapp
!!!SMA: 371 Bach Chorales, edited by Ludwig Erk, C.F. Peters
!!!PDT: 1850, 1865
!!!ONB: Harmony and Root analysis done manually by Craig Sapp
